Hatter-kde-dark/actions/24/gnumeric-format-accounting.svg

<svg xmlns="http://www.w3.org/2000/svg" viewBox="0 0 24 24">
  <defs id="defs3051">
    <style type="text/css" id="current-color-scheme">
      .ColorScheme-Text {
        color:#dedede;
      }
      </style>
  </defs>
 <path style="fill:currentColor;fill-opacity:1;stroke:none" 
     d="M 11 3 L 11 5.1308594 C 10.022827 5.272742 9.1906877 5.5299378 8.5371094 5.9316406 C 7.5265626 6.5465406 7.0214834 7.4897188 7.0214844 8.7617188 C 7.0169288 10.957011 8.5789587 11.68039 11 12.345703 L 11 17.335938 C 9.8272813 17.236927 8.7551089 17.016504 7.6230469 16.533203 L 7 17.888672 C 7.5645099 18.189972 8.3272997 18.450828 9.2890625 18.673828 C 9.833341 18.796143 10.400282 18.874405 11 18.927734 L 11 21 L 12 21 L 12 18.976562 C 12.170103 18.981099 12.31439 19 12.494141 19 C 12.657654 18.998701 12.830233 18.984699 13 18.976562 L 13 21 L 14 21 L 14 18.880859 C 15.996749 18.596007 17.979968 17.678603 17.958984 15.193359 C 17.889007 13.364266 16.755864 12.685849 14 11.716797 L 14 6.7636719 C 14.903263 6.8844157 16.002058 7.135949 17.224609 7.7460938 L 18 6.203125 C 17.449416 5.907625 16.16891 5.4367187 15.353516 5.2617188 C 14.920001 5.1691054 14.466997 5.1061138 14 5.0625 L 14 3 L 13 3 L 13 5.0136719 C 12.907791 5.0119134 12.82191 5 12.728516 5 C 12.471779 5 12.240718 5.0203437 12 5.0332031 L 12 3 L 11 3 z M 12.4375 6.6484375 C 12.588524 6.6492656 12.799835 6.6578869 13 6.6660156 L 13 11.367188 C 12.842551 11.314477 12.74464 11.274025 12.578125 11.21875 C 12.399423 11.174768 12.193203 11.110623 12 11.058594 L 12 6.6621094 C 12.145876 6.6557391 12.291583 6.648453 12.4375 6.6484375 z M 11 6.7597656 L 11 10.755859 C 9.7730055 10.321486 8.6429588 9.6646591 8.6757812 8.5664062 C 8.6162325 7.525104 9.6802316 6.9756239 11 6.7597656 z M 12 12.613281 C 12.183874 12.660073 12.329816 12.705387 12.521484 12.753906 C 12.682494 12.799725 12.838882 12.851255 13 12.898438 L 13 17.390625 C 12.850535 17.393712 12.688612 17.409414 12.548828 17.408203 C 12.357351 17.406423 12.184158 17.394213 12 17.388672 L 12 12.613281 z M 14 13.210938 C 15.281472 13.659476 16.319699 14.246286 16.296875 15.275391 C 16.257992 16.671085 15.165263 17.158285 14 17.324219 L 14 13.210938 z "
     class="ColorScheme-Text"
     />
</svg>

<?xml version="1.0" encoding="UTF-8"?>
<svg viewBox="0 0 24 24" xmlns="http://www.w3.org/2000/svg">
 <defs id="defs3051">
  <style id="current-color-scheme" type="text/css">.ColorScheme-Text {
        color:#dedede;
      }</style>
 </defs>
 <path class="ColorScheme-Text" d="m11 3v2.1309c-0.97717 0.14188-1.8093 0.39908-2.4629 0.80078-1.0105 0.6149-1.5156 1.5581-1.5156 2.8301-0.0045556 2.1953 1.5575 2.9187 3.9785 3.584v4.9902c-1.1727-0.099011-2.2449-0.31943-3.377-0.80274l-0.62305 1.3555c0.56451 0.3013 1.3273 0.56216 2.2891 0.78516 0.54428 0.12232 1.1112 0.20058 1.7109 0.25391v2.0723h1v-2.0234c0.1701 0.004537 0.31439 0.023438 0.49414 0.023438 0.16351-0.001299 0.33609-0.015301 0.50586-0.023438v2.0234h1v-2.1191c1.9967-0.28485 3.98-1.2023 3.959-3.6875-0.069977-1.8291-1.2031-2.5075-3.959-3.4766v-4.9531c0.90326 0.12074 2.0021 0.37228 3.2246 0.98242l0.77539-1.543c-0.55058-0.2955-1.8311-0.76641-2.6465-0.94141-0.43352-0.092613-0.88652-0.1556-1.3535-0.19922v-2.0625h-1v2.0137c-0.092209-0.0017585-0.17809-0.013672-0.27148-0.013672-0.25674 0-0.4878 0.020344-0.72852 0.033203v-2.0332h-1zm1.4375 3.6484c0.15102 8.281e-4 0.36234 0.0094494 0.5625 0.017578v4.7012c-0.15745-0.052711-0.25536-0.093163-0.42188-0.14844-0.1787-0.043982-0.38492-0.10813-0.57812-0.16016v-4.3965c0.14588-0.0063703 0.29158-0.013656 0.4375-0.013672zm-1.4375 0.11133v3.9961c-1.227-0.43437-2.357-1.0912-2.3242-2.1895-0.059549-1.0413 1.0045-1.5908 2.3242-1.8066zm1 5.8535c0.18387 0.046792 0.32982 0.092106 0.52148 0.14062 0.16101 0.045819 0.3174 0.097349 0.47852 0.14453v4.4922c-0.14946 0.003087-0.31139 0.018789-0.45117 0.017578-0.19148-0.00178-0.36467-0.01399-0.54883-0.019531v-4.7754zm2 0.59766c1.2815 0.44854 2.3197 1.0353 2.2969 2.0645-0.038883 1.3957-1.1316 1.8829-2.2969 2.0488v-4.1133z" fill="currentColor"/>
</svg>
